z_dist/img/icons/crypto/amp-AMP.svg

<svg width="64" height="64" viewBox="0 0 64 64" fill="none" xmlns="http://www.w3.org/2000/svg">
<rect width="64" height="64" rx="4" fill="#D9327C"/>
<path fill-rule="evenodd" clip-rule="evenodd" d="M30.7617 16.8775C30.5037 17.084 30.194 17.4453 29.9875 18.1162C29.7811 18.7872 28.6456 22.0904 27.2004 26.2195H36.8521C35.4069 22.0904 34.2714 18.7872 34.065 18.1162C33.8585 17.4453 33.5488 17.084 33.2908 16.8775C33.0327 16.6711 32.6714 16.5162 32.0004 16.5162C31.3295 16.5162 31.0198 16.6711 30.7617 16.8775ZM16.5164 26.2195H23.0712C24.6712 21.5227 26.0648 17.6001 26.2712 16.8775C26.6841 15.6388 27.3551 14.5549 28.3873 13.7807C29.4196 13.0066 30.6583 12.6453 31.9486 12.6453C33.2389 12.6453 34.4777 12.9549 35.5099 13.7807C36.5422 14.5549 37.2131 15.6388 37.626 16.8775C37.8841 17.6001 39.226 21.4711 40.826 26.2195H47.4841C48.568 26.2195 49.4454 27.0969 49.4454 28.1807C49.4454 29.2646 48.568 30.142 47.4841 30.142H42.2712H38.1938H25.8583H21.7809H16.5164C15.4325 30.142 14.6067 29.2646 14.6067 28.1807C14.6067 27.0969 15.4841 26.2195 16.5164 26.2195ZM16.5164 33.9614C15.4325 33.9614 14.6067 34.8388 14.6067 35.9227C14.6067 37.0066 15.4841 37.884 16.5164 37.884H19.097L18.0648 40.8775L17.0325 43.8711L16.6196 45.0066C16.2583 46.0388 16.826 47.1227 17.8067 47.484C18.8389 47.8453 19.9228 47.2775 20.2841 46.2969L20.697 45.1614L21.7293 42.1679C22.1422 40.9292 22.6583 39.484 23.226 37.884H40.8777C41.3938 39.4324 41.9099 40.9292 42.3744 42.1679L43.4067 45.1614L43.8196 46.2969C44.1809 47.3292 45.2648 47.8453 46.297 47.484C47.3293 47.1227 47.8454 46.0388 47.4841 45.0066L47.0712 43.8711L46.0389 40.8775L45.0067 37.884H47.5873C48.6712 37.884 49.5486 37.0066 49.5486 35.9227C49.5486 34.8388 48.6712 33.9614 47.5873 33.9614H43.6648H39.5873H24.6196H20.5422H16.5164ZM45.5754 45.5745L47.3819 44.9552C47.3819 44.9552 47.3819 44.9552 45.5754 45.5745ZM45.5746 45.5743C43.7681 46.1937 43.7681 46.1937 43.7681 46.1937L45.5746 45.5743ZM18.4765 45.5743L20.2829 46.1937C20.2829 46.1937 20.2829 46.1937 18.4765 45.5743ZM18.4782 45.5745C16.6718 44.9552 16.6718 44.9552 16.6718 44.9552L18.4782 45.5745Z" fill="white"/>
</svg>

<svg width="64" height="64" fill="none" xmlns="http://www.w3.org/2000/svg"><rect width="64" height="64" rx="4" fill="#D9327C"/><path fill-rule="evenodd" clip-rule="evenodd" d="M30.762 16.878c-.258.206-.568.567-.774 1.238-.207.671-1.342 3.974-2.788 8.104h9.652c-1.445-4.13-2.58-7.433-2.787-8.104-.206-.67-.516-1.032-.774-1.238-.258-.207-.62-.362-1.29-.362-.671 0-.981.155-1.24.362zm-14.246 9.341h6.555c1.6-4.696 2.994-8.619 3.2-9.341.413-1.24 1.084-2.323 2.116-3.097 1.033-.774 2.271-1.136 3.562-1.136 1.29 0 2.529.31 3.56 1.136 1.033.774 1.704 1.858 2.117 3.097.258.722 1.6 4.593 3.2 9.341h6.658a1.96 1.96 0 110 3.923H16.516c-1.083 0-1.91-.877-1.91-1.961s.878-1.962 1.91-1.962zm0 7.742c-1.083 0-1.91.878-1.91 1.962s.878 1.961 1.91 1.961h2.581l-1.032 2.993-1.033 2.994-.412 1.136c-.362 1.032.206 2.116 1.187 2.477 1.032.361 2.116-.206 2.477-1.187l.413-1.136 1.032-2.993c.413-1.239.93-2.684 1.497-4.284h17.652a128.129 128.129 0 001.496 4.284l1.033 2.993.413 1.136a1.916 1.916 0 002.477 1.187 1.916 1.916 0 001.187-2.477l-.413-1.136-1.032-2.994-1.032-2.993h2.58a1.96 1.96 0 100-3.923H16.516zm29.06 11.614l1.806-.62-1.807.62zm-.001 0l-1.807.619 1.807-.62zm-27.099 0l1.807.619-1.806-.62zm.002 0l-1.806-.62 1.806.62z" fill="#fff"/></svg>
